icons/phone.svg

<svg width="48" height="48" viewBox="0 0 28 28" fill="none" xmlns="http://www.w3.org/2000/svg">
<path d="M24.374 15.4C24.066 15.4 23.744 15.302 23.436 15.232C22.8128 15.0926 22.2 14.9102 21.602 14.686C20.9526 14.4497 20.2386 14.462 19.5977 14.7205C18.9567 14.9789 18.4339 15.4653 18.13 16.086L17.822 16.73C16.4624 15.9589 15.2063 15.018 14.084 13.93C12.996 12.8077 12.0551 11.5516 11.284 10.192L11.928 9.898C12.5487 9.59408 13.0351 9.07134 13.2936 8.43037C13.552 7.78939 13.5643 7.07548 13.328 6.426C13.1057 5.82264 12.9233 5.20531 12.782 4.578C12.712 4.27 12.656 3.948 12.614 3.64C12.444 2.65387 11.9275 1.76084 11.1575 1.12173C10.3875 0.482631 9.4146 0.139452 8.41403 0.154H4.20003C3.60817 0.153225 3.02284 0.277547 2.48239 0.518817C1.94195 0.760087 1.4586 1.11286 1.06403 1.554C0.661275 2.00712 0.361388 2.54205 0.184972 3.12205C0.00855496 3.70205 -0.04021 4.31337 0.0420271 4.914C0.80305 10.741 3.46532 16.1541 7.61603 20.314C11.7759 24.4647 17.189 27.127 23.016 27.888C23.1978 27.9019 23.3803 27.9019 23.562 27.888C24.5944 27.8895 25.5912 27.5107 26.362 26.824C26.8032 26.4294 27.1559 25.9461 27.3972 25.4056C27.6385 24.8652 27.7628 24.2799 27.762 23.688V19.488C27.7545 18.5207 27.4132 17.5856 26.7959 16.8407C26.1786 16.0959 25.3232 15.587 24.374 15.4ZM25.06 23.8C25.0596 23.9954 25.0182 24.1885 24.9387 24.3669C24.8591 24.5453 24.7431 24.7051 24.598 24.836C24.4446 24.9758 24.262 25.0797 24.0634 25.1403C23.8649 25.2008 23.6554 25.2164 23.45 25.186C18.2256 24.5037 13.3704 22.1228 9.63203 18.41C5.89049 14.6685 3.48887 9.79631 2.80003 4.55C2.76961 4.34467 2.78524 4.13514 2.84577 3.93659C2.90631 3.73804 3.01023 3.55544 3.15003 3.402C3.2825 3.25521 3.44456 3.13815 3.62554 3.05852C3.80651 2.97889 4.00231 2.93849 4.20003 2.94H8.40003C8.72365 2.93209 9.04002 3.03658 9.29528 3.23568C9.55054 3.43478 9.72891 3.71619 9.80003 4.032C9.80003 4.41 9.92603 4.802 10.01 5.18C10.1718 5.91341 10.3871 6.634 10.654 7.336L8.69403 8.26C8.35714 8.41465 8.09533 8.69659 7.96603 9.044C7.826 9.38485 7.826 9.76715 7.96603 10.108C9.98091 14.4239 13.4502 17.8931 17.766 19.908C18.1069 20.048 18.4892 20.048 18.83 19.908C19.1774 19.7787 19.4594 19.5169 19.614 19.18L20.496 17.22C21.2183 17.4834 21.9573 17.6985 22.708 17.864C23.072 17.948 23.464 18.018 23.842 18.074C24.1578 18.1451 24.4392 18.3235 24.6383 18.5788C24.8375 18.834 24.9419 19.1504 24.934 19.474L25.06 23.8ZM16.8 0H15.82C15.4487 0.0315608 15.1052 0.209328 14.8649 0.494196C14.6247 0.779064 14.5075 1.1477 14.539 1.519C14.5706 1.8903 14.7484 2.23386 15.0332 2.4741C15.3181 2.71433 15.6867 2.83156 16.058 2.8H16.8C19.0278 2.8 21.1644 3.685 22.7397 5.2603C24.315 6.83561 25.2 8.97218 25.2 11.2V11.942C25.169 12.3113 25.2857 12.6779 25.5245 12.9613C25.7633 13.2448 26.1048 13.4219 26.474 13.454H26.586C26.9365 13.4554 27.2748 13.3253 27.534 13.0895C27.7932 12.8536 27.9545 12.5291 27.986 12.18V11.2C27.986 8.232 26.808 5.38536 24.7106 3.28535C22.6132 1.18534 19.768 0.00371 16.8 0ZM19.6 11.2C19.6 11.5713 19.7475 11.9274 20.0101 12.1899C20.2726 12.4525 20.6287 12.6 21 12.6C21.3713 12.6 21.7274 12.4525 21.99 12.1899C22.2525 11.9274 22.4 11.5713 22.4 11.2C22.4 9.71479 21.81 8.29041 20.7598 7.2402C19.7096 6.19 18.2852 5.6 16.8 5.6C16.4287 5.6 16.0726 5.7475 15.8101 6.01005C15.5475 6.2726 15.4 6.6287 15.4 7C15.4 7.3713 15.5475 7.7274 15.8101 7.98995C16.0726 8.2525 16.4287 8.4 16.8 8.4C17.5426 8.4 18.2548 8.695 18.7799 9.2201C19.305 9.7452 19.6 10.4574 19.6 11.2Z" fill="white"/>
</svg>

<svg width="48" height="48" viewBox="0 0 28 28" fill="none" xmlns="http://www.w3.org/2000/svg"><path d="M24.374 15.4c-.308 0-.63-.098-.938-.168a13.814 13.814 0 0 1-1.834-.546 2.8 2.8 0 0 0-3.472 1.4l-.308.644a18.44 18.44 0 0 1-3.738-2.8 18.44 18.44 0 0 1-2.8-3.738l.644-.294a2.8 2.8 0 0 0 1.4-3.472 14.67 14.67 0 0 1-.546-1.848c-.07-.308-.126-.63-.168-.938a4.2 4.2 0 0 0-4.2-3.486H4.2a4.2 4.2 0 0 0-3.136 1.4 4.2 4.2 0 0 0-1.022 3.36 26.698 26.698 0 0 0 7.574 15.4 26.698 26.698 0 0 0 15.4 7.574c.182.014.364.014.546 0a4.2 4.2 0 0 0 2.8-1.064 4.2 4.2 0 0 0 1.4-3.136v-4.2a4.2 4.2 0 0 0-3.388-4.088Zm.686 8.4a1.4 1.4 0 0 1-.462 1.036 1.4 1.4 0 0 1-1.148.35A24.024 24.024 0 0 1 9.632 18.41 24.024 24.024 0 0 1 2.8 4.55a1.4 1.4 0 0 1 .35-1.148A1.4 1.4 0 0 1 4.2 2.94h4.2a1.4 1.4 0 0 1 1.4 1.092c0 .378.126.77.21 1.148.162.733.377 1.454.644 2.156l-1.96.924a1.4 1.4 0 0 0-.728.784 1.4 1.4 0 0 0 0 1.064 20.286 20.286 0 0 0 9.8 9.8c.34.14.723.14 1.064 0a1.4 1.4 0 0 0 .784-.728l.882-1.96a17.375 17.375 0 0 0 3.346.854 1.4 1.4 0 0 1 1.092 1.4l.126 4.326ZM16.8 0h-.98a1.405 1.405 0 0 0 .238 2.8h.742a8.4 8.4 0 0 1 8.4 8.4v.742a1.4 1.4 0 0 0 1.274 1.512h.112a1.4 1.4 0 0 0 1.4-1.274v-.98A11.2 11.2 0 0 0 16.8 0Zm2.8 11.2a1.4 1.4 0 1 0 2.8 0 5.6 5.6 0 0 0-5.6-5.6 1.4 1.4 0 1 0 0 2.8 2.8 2.8 0 0 1 2.8 2.8Z" fill="#fff"/></svg>
